newicons/android_remote.svg

<?xml version="1.0" encoding="UTF-8"?><svg id="a" xmlns="http://www.w3.org/2000/svg" viewBox="0 0 48 48"><defs><style>.c{fill:none;stroke:#fff;stroke-linecap:round;stroke-linejoin:round;}</style></defs><path id="b" class="c" d="M11.172,19.535l-4.454,4.465,4.454,4.465v-8.93ZM36.828,19.535l4.454,4.465-4.454,4.465v-8.93ZM19.535,36.828l4.465,4.454,4.465-4.454h-8.93ZM19.535,11.172l4.465-4.454,4.465,4.454h-8.93ZM27.3059,29.6322l-1.9487-3.967,3.8108.1393-7.7533-7.8596v11.5283l2.3486-2.9169,1.9242,3.9077,1.6184-.8318ZM33.045,24c0,4.9954-4.0496,9.045-9.045,9.045s-9.045-4.0496-9.045-9.045c0-4.9954,4.0496-9.045,9.045-9.045s9.045,4.0496,9.045,9.045ZM45.5,24c0,11.8741-9.6259,21.5-21.5,21.5S2.5,35.8741,2.5,24,12.1259,2.5,24,2.5s21.5,9.6259,21.5,21.5Z"/></svg>

<svg xmlns="http://www.w3.org/2000/svg" xml:space="preserve" id="svg1" version="1.1" viewBox="0 0 48 48"><defs id="defs1"><style id="style1">.a{fill:none;stroke:#fff;stroke-linecap:round;stroke-linejoin:round}</style></defs><path id="path5" d="M11.172 19.535 6.718 24l4.454 4.465zm25.656 0L41.282 24l-4.454 4.465zM19.535 36.828 24 41.282l4.465-4.454zm0-25.656L24 6.718l4.465 4.454zm3.889 15.139 2.045 4.153c.43.871 2.195.081 1.72-.884l-2.071-4.216 4.05.148-8.24-8.353v12.252ZM33.045 24A9.045 9.045 0 0 1 24 33.045 9.045 9.045 0 0 1 14.955 24 9.045 9.045 0 0 1 24 14.955 9.045 9.045 0 0 1 33.045 24ZM45.5 24A21.5 21.5 0 0 1 24 45.5 21.5 21.5 0 0 1 2.5 24 21.5 21.5 0 0 1 24 2.5 21.5 21.5 0 0 1 45.5 24Z" style="fill:none;stroke:#fff;stroke-width:1;stroke-linecap:round;stroke-linejoin:round;stroke-opacity:1"/></svg>
